X: 1
T: Flop-Eared Mule
%O: from Viola Ruth
B: Lee Owens "Advanced Square Dance Figures of the West and Southwest" p.87
R: reel
Z: 2010 John Chambers <jc:trillian.mit.edu>
N: Fixed weird endings by merging them.
M: 2/4
L: 1/16
K: G
|: "G"dedB dedB | dedB G2G2 | "D7"FGAB cBcA | "G"GABc d2d2 |
"G"dedB dedB | dedB G2G2 | "D7"FGAB cAFD | "G"MG2MG2 MG2z2 :|
|: {f}"G".[b2d2].[b2d2] M[g2B2]M[g2B2] | dedB MG2MG2 | "D7"FGAB cBcA | "G"GABc Md2Md2 |
"G"{f}[b2d2][b2d2] M[g2B2]M[g2B2] | dedB MG2MG2 | "D7"FGAB cAFD | "G"G2G2 G2z2 :|

%%sep 1 1 500

